X: 5272
T: Brook, The
R: reel
M: 4/4
K: Gmajor
ge|dedB ~G3B|d2BG FGAB|dedB GBAG|~F2DE FGAB|
~d2Bd G2ge|dGBG FAAB|dedB ~G2AG|FADE FGAB||
GE~E2 B,E~E2|GE~E2 edBA|~G2ED B,E~E2|FEDE FGAB|
~G2ED B,E~E2|B,E~E2 edBA|~G2EF ~G2dc|BdcA GDEF||
G3A ~G2ge|dGBG FAAF|~G2eG dG~G2|FEDE FGAB|
~G3B dG~G2|DGGE FGAB|~G2eG dGGE|FEDE FGAB||

